symbolic/32x32/apps/novprog.svg

<svg xmlns="http://www.w3.org/2000/svg" width="32" height="32" version="1.1">
 <path style="opacity:0.2" d="M 6.375,3 C 5.61325,3 5,3.6244 5,4.4 V 29.6 C 5,30.3756 5.61325,31 6.375,31 h 19.25 C 26.38675,31 27,30.3756 27,29.6 V 4.4 C 27,3.6244 26.38675,3 25.625,3 Z"/>
 <path style="fill:#5a72e3" d="M 6.375,2 C 5.61325,2 5,2.6244 5,3.4 V 28.6 C 5,29.3756 5.61325,30 6.375,30 h 19.25 C 26.38675,30 27,29.3756 27,28.6 V 3.4 C 27,2.6244 26.38675,2 25.625,2 Z"/>
 <path style="opacity:0.3" d="M 6.375,2 C 5.61325,2 5,2.6244 5,3.4 V 28.6 C 5,29.3756 5.61325,30 6.375,30 H 9 V 2 H 6.3753438 Z"/>
 <path style="opacity:0.2" d="m 21,9 v 15 h 3 V 9 Z m -10,4 v 11 h 3 V 13 Z m 5,4 v 7 h 3 v -7 z"/>
 <path style="fill:#ffffff" d="M 21 8 L 21 23 L 24 23 L 24 8 L 21 8 z M 11 12 L 11 23 L 14 23 L 14 12 L 11 12 z M 16 16 L 16 23 L 19 23 L 19 16 L 16 16 z"/>
 <path style="fill:#ffffff;opacity:0.1" d="M 6.375 2 C 5.61325 2 5 2.6247906 5 3.4003906 L 5 4.4003906 C 5 3.6247906 5.61325 3 6.375 3 L 25.625 3 C 26.38675 3 27 3.6247906 27 4.4003906 L 27 3.4003906 C 27 2.6247906 26.38675 2 25.625 2 L 6.375 2 z"/>
</svg>

<svg xmlns="http://www.w3.org/2000/svg" width="32" height="32"><path style="opacity:.2" d="M6.375 3C5.613 3 5 3.624 5 4.4v25.2c0 .776.613 1.4 1.375 1.4h19.25c.762 0 1.375-.624 1.375-1.4V4.4c0-.776-.613-1.4-1.375-1.4z"/><path style="fill:#5a72e3" d="M6.375 2C5.613 2 5 2.624 5 3.4v25.2c0 .776.613 1.4 1.375 1.4h19.25c.762 0 1.375-.624 1.375-1.4V3.4c0-.776-.613-1.4-1.375-1.4z"/><path style="opacity:.3" d="M6.375 2C5.613 2 5 2.624 5 3.4v25.2c0 .776.613 1.4 1.375 1.4H9V2H6.375z"/><path style="opacity:.2" d="M21 9v15h3V9zm-10 4v11h3V13zm5 4v7h3v-7z"/><path style="fill:#fff" d="M21 8v15h3V8h-3zm-10 4v11h3V12h-3zm5 4v7h3v-7h-3z"/><path style="fill:#fff;opacity:.1" d="M6.375 2C5.613 2 5 2.625 5 3.4v1C5 3.625 5.613 3 6.375 3h19.25C26.387 3 27 3.625 27 4.4v-1c0-.775-.613-1.4-1.375-1.4H6.375z"/></svg>
